X: 1
T: la Belle Aurore
C: Andr\'e Brunet
R: air, reel, march
Z: 2018 John Chambers <jc:trillian.mit.edu>
M: C|
L: 1/8
K: G
z2 |\
"G"B2-Bc d2gf | "C"e4 "G"d2cB | "Am"c2de "D"A-AG>A | "G"BDcB "D"A4 |\
"G"B2-Bc d2gf | "C"e4 "G"d2cB | "Am"c3B "D"A-AGF | "G"G6 :|
|: AB |\
"C"c3B "D"A-AG>A | "G"BDBA "Em"G2FG | "C"Ec-cE "D"FDd>c | "C/E"cBAG "D/F#"A2AB |\
"Am7"c3B "D"A-AG>A | "G"BDBA "Em"G2AB | "Am"c3B "D"A-AGF | "G"G6 :|
